X:502
T:St. George's Day 
M:6/8
L:1/8
P:AB 
K:Gmaj
D | G2 D A2 D | B2 G GAB | c2 B A2 G | FGA DEF | 
G2 D A2 D | B2 G GAB | cBA DEF | G3 G2 :| 
B2 d dBd | e2 c c2 B | c2 c cAc | d2 B B2 D | 
G2 D A2 D | B2 G GAB | cBA DEF | G3 G3 :| 

